%
(2D Contour3)
(lexan top lid test)
(T1  D=0.25 CR=0 - ZMIN=-0.11 - flat end mill)
G90 G94
G17
G20
G28 G91 Z0
G90

(2D Contour3)
M9
T1 M6
(for hard Aluminum)
S19666 M3
G54
G0 X1.8509 Y-1.9159
Z0.6
Z0.2
G1 Z0.08 F30
Z-0.085
X1.8511 Y-1.9161 Z-0.0889
X1.8517 Y-1.9167 Z-0.0927
X1.8528 Y-1.9178 Z-0.0963
X1.8542 Y-1.9193 Z-0.0997
X1.856 Y-1.9211 Z-0.1027
X1.858 Y-1.9233 Z-0.1052
X1.8604 Y-1.9257 Z-0.1073
X1.8629 Y-1.9283 Z-0.1088
X1.8655 Y-1.931 Z-0.1097
X1.8682 Y-1.9338 Z-0.11
X1.8856 Y-1.9518 F43
G3 X1.921 Y-1.9523 I0.018 J0.0174
G1 X3.3242 Y-0.5934 F43.2
G2 X0.4673 Y-0.4994 I-1.3435 J2.6302
X0.701 Y-3.1339 I-2.5137 J-1.5506
G1 X1.921 Y-1.9523
G3 X1.9216 Y-1.917 I-0.0174 J0.018 F43
G1 X1.9042 Y-1.899
X1.9014 Y-1.8962 Z-0.1097
X1.8988 Y-1.8935 Z-0.1088
X1.8963 Y-1.8909 Z-0.1073
X1.8939 Y-1.8885 Z-0.1052
X1.8919 Y-1.8863 Z-0.1027
X1.8901 Y-1.8845 Z-0.0997
X1.8887 Y-1.883 Z-0.0963
X1.8876 Y-1.882 Z-0.0927
X1.887 Y-1.8813 Z-0.0889
X1.8868 Y-1.8811 Z-0.085
G0 Z0.2
X-1.6912 Y-5.0576
G1 Z0.08 F30
Z-0.085
Y-5.0573 Z-0.0889
X-1.6913 Y-5.0564 Z-0.0927
X-1.6915 Y-5.0549 Z-0.0963
X-1.6917 Y-5.0529 Z-0.0997
X-1.692 Y-5.0503 Z-0.1027
X-1.6923 Y-5.0474 Z-0.1052
X-1.6927 Y-5.0441 Z-0.1073
X-1.6931 Y-5.0405 Z-0.1088
X-1.6935 Y-5.0367 Z-0.1097
X-1.6939 Y-5.0328 Z-0.11
X-1.6966 Y-5.0079 F43
G3 X-1.7242 Y-4.9858 I-0.0249 J-0.0027
G2 X-4.304 Y-3.9542 I-0.3222 J2.9358 F43.2
X-4.339 Y-0.188 I2.2576 J1.9042
X-4.4056 Y-0.1406 I0.095 J0.204
G1 X-4.9621 Y0.4341
G2 X-4.957 Y0.7522 I0.1616 J0.1565
G1 X-4.351 Y1.3391
X-4.3503 Y1.3398
X-4.3033 Y1.3846
X-4.3031 Y1.3848
X-4.2553 Y1.4302
X-4.2552
X-4.2069 Y1.4761
X-4.1585 Y1.5222
X-4.11 Y1.5686
X-4.0627 Y1.6144
X-4.0159 Y1.6604
X-3.9697 Y1.7065
X-3.9244 Y1.7527
X-3.889 Y1.7896
X-3.8544 Y1.8266
X-3.8207 Y1.8635
X-3.7881 Y1.9003
X-3.7566 Y1.937
X-3.7269 Y1.9729
X-3.6985 Y2.0086
X-3.6715 Y2.0441
X-3.6459 Y2.0794
X-3.6256 Y2.1089
X-3.6065 Y2.1382
X-3.5886 Y2.1672
X-3.5721 Y2.1958
X-3.5569 Y2.2241
X-3.5432 Y2.252
X-3.5316 Y2.2777
X-3.5213 Y2.303
X-3.5123 Y2.3278
X-3.5047 Y2.3521
X-3.4983 Y2.3761
X-3.4942 Y2.3953
X-3.4909 Y2.4142
X-3.4886 Y2.4328
X-3.4872 Y2.451
X-3.4866 Y2.4688
X-3.487 Y2.4864
X-3.4882 Y2.5025
X-3.4902 Y2.5186
X-3.493 Y2.5344
X-3.4967 Y2.5502
X-3.5021 Y2.5691
G2 X-3.506 Y2.588 I0.1201 J0.0346
G1 X-3.7697 Y4.6723
G2 X-3.5748 Y4.9237 I0.2232 J0.0283
G1 X-2.7811 Y5.0242
G2 X-2.5296 Y4.8292 I0.0282 J-0.2232
G1 X-2.3734 Y3.5947
X-2.3694 Y3.5831
X-2.3615 Y3.5612
X-2.3538 Y3.5405
X-2.3461 Y3.5211
X-2.3386 Y3.5028
X-2.3314 Y3.4861
X-2.3243 Y3.4705
X-2.3173 Y3.4561
X-2.3107 Y3.443
X-2.3029 Y3.4286
X-2.2954 Y3.416
X-2.2885 Y3.405
X-2.282 Y3.3956
X-2.276 Y3.3878
X-2.2709 Y3.3818
X-2.2656 Y3.3763
X-2.2617 Y3.3727
X-2.2615 Y3.3726
X-2.2605 Y3.3729
X-2.2557 Y3.375
X-2.2495 Y3.3782
X-2.242 Y3.3827
X-2.2336 Y3.3881
X-2.2211 Y3.3972
X-2.2076 Y3.4079
X-2.1929 Y3.4204
X-2.1771 Y3.4346
X-2.1604 Y3.4503
X-2.1429 Y3.4675
X-2.1245 Y3.4859
X-2.1053 Y3.5055
X-2.0853 Y3.5262
X-2.0645 Y3.5478
X-2.0363 Y3.5772
X-2.036 Y3.5775
X-2.0068 Y3.6078
X-2.0061 Y3.6084
X-1.9758 Y3.6393
X-1.9736 Y3.6415
X-1.5089 Y4.0915
G2 X-1.1908 Y4.0864 I0.1565 J-0.1616
G1 X-0.6342 Y3.5117
G2 X-0.602 Y3.4694 I-0.1616 J-0.1566
X1.812 Y4.9853 I2.5827 J-1.4326
X4.4409 Y0.4026 I0.1688 J-2.9486
X4.2959 Y0.203 I-2.4602 J1.6341
X4.4056 Y0.1406 I-0.052 J-0.2189
G1 X4.9621 Y-0.4341
G2 X4.957 Y-0.7522 I-0.1616 J-0.1565
G1 X4.351 Y-1.3391
X4.3503 Y-1.3398
X4.3033 Y-1.3846
X4.3031 Y-1.3848
X4.2553 Y-1.4302
X4.2552
X4.2069 Y-1.4761
X4.1585 Y-1.5222
X4.11 Y-1.5686
X4.0627 Y-1.6144
X4.0159 Y-1.6604
X3.9697 Y-1.7065
X3.9244 Y-1.7527
X3.889 Y-1.7896
X3.8544 Y-1.8266
X3.8207 Y-1.8635
X3.7881 Y-1.9003
X3.7566 Y-1.937
X3.7269 Y-1.9729
X3.6985 Y-2.0086
X3.6715 Y-2.0441
X3.6459 Y-2.0794
X3.6256 Y-2.1089
X3.6065 Y-2.1382
X3.5886 Y-2.1672
X3.5721 Y-2.1958
X3.5569 Y-2.2241
X3.5432 Y-2.252
X3.5316 Y-2.2777
X3.5213 Y-2.303
X3.5123 Y-2.3278
X3.5047 Y-2.3521
X3.4983 Y-2.3761
X3.4942 Y-2.3953
X3.4909 Y-2.4142
X3.4886 Y-2.4328
X3.4872 Y-2.451
X3.4866 Y-2.4688
X3.487 Y-2.4864
X3.4882 Y-2.5025
X3.4902 Y-2.5186
X3.493 Y-2.5344
X3.4967 Y-2.5502
X3.5021 Y-2.5691
G2 X3.506 Y-2.588 I-0.1201 J-0.0346
G1 X3.7697 Y-4.6723
G2 X3.5748 Y-4.9237 I-0.2232 J-0.0283
G1 X2.7811 Y-5.0242
G2 X2.5296 Y-4.8292 I-0.0282 J0.2232
G1 X2.3734 Y-3.5947
X2.3694 Y-3.5831
X2.3615 Y-3.5612
X2.3538 Y-3.5405
X2.3461 Y-3.5211
X2.3386 Y-3.5028
X2.3314 Y-3.4861
X2.3243 Y-3.4705
X2.3173 Y-3.4561
X2.3107 Y-3.443
X2.3029 Y-3.4286
X2.2954 Y-3.416
X2.2885 Y-3.405
X2.282 Y-3.3956
X2.276 Y-3.3878
X2.2709 Y-3.3818
X2.2656 Y-3.3763
X2.2617 Y-3.3727
X2.2615 Y-3.3726
X2.2605 Y-3.3729
X2.2557 Y-3.375
X2.2495 Y-3.3782
X2.242 Y-3.3827
X2.2336 Y-3.3881
X2.2211 Y-3.3972
X2.2076 Y-3.4079
X2.1929 Y-3.4204
X2.1771 Y-3.4346
X2.1604 Y-3.4503
X2.1429 Y-3.4675
X2.1245 Y-3.4859
X2.1053 Y-3.5055
X2.0853 Y-3.5262
X2.0645 Y-3.5478
X2.0363 Y-3.5772
X2.036 Y-3.5775
X2.0068 Y-3.6078
X2.0061 Y-3.6084
X1.9758 Y-3.6393
X1.9736 Y-3.6415
X1.5089 Y-4.0915
G2 X1.1908 Y-4.0864 I-0.1565 J0.1616
G1 X0.6342 Y-3.5117
G2 X0.5769 Y-3.4069 I0.1616 J0.1565
X0.4138 Y-3.6841 I-2.6232 J1.357
X-1.7242 Y-4.9858 I-2.4601 J1.6341
G3 X-1.7463 Y-5.0134 I0.0027 J-0.0249 F43
G1 X-1.7436 Y-5.0382
X-1.7432 Y-5.0421 Z-0.1097
X-1.7428 Y-5.0459 Z-0.1088
X-1.7424 Y-5.0495 Z-0.1073
X-1.742 Y-5.0528 Z-0.1052
X-1.7417 Y-5.0558 Z-0.1027
X-1.7414 Y-5.0583 Z-0.0997
X-1.7412 Y-5.0604 Z-0.0963
X-1.741 Y-5.0619 Z-0.0927
X-1.7409 Y-5.0628 Z-0.0889
Y-5.0631 Z-0.085
G0 Z0.2
X-1.5964 Y-2.075
G1 Z0.08 F30
Z-0.085
X-1.5961 Z-0.0889
X-1.5952 Z-0.0927
X-1.5937 Z-0.0963
X-1.5916 Z-0.0997
X-1.5891 Z-0.1027
X-1.5861 Z-0.1052
X-1.5827 Z-0.1073
X-1.5791 Z-0.1088
X-1.5753 Z-0.1097
X-1.5714 Z-0.11
X-1.5464 F43
G3 X-1.5214 Y-2.05 J0.025
X-2.5714 I-0.525 F43.2
X-1.5214 I0.525
X-1.5464 Y-2.025 I-0.025 F43
G1 X-1.5714
X-1.5753 Z-0.1097
X-1.5791 Z-0.1088
X-1.5827 Z-0.1073
X-1.5861 Z-0.1052
X-1.5891 Z-0.1027
X-1.5916 Z-0.0997
X-1.5937 Z-0.0963
X-1.5952 Z-0.0927
X-1.5961 Z-0.0889
X-1.5964 Z-0.085
G0 Z0.2
X-1.891 Y1.877
G1 Z0.08 F30
Z-0.085
X-1.8912 Y1.8772 Z-0.0889
X-1.8918 Y1.8779 Z-0.0927
X-1.8929 Y1.879 Z-0.0963
X-1.8943 Y1.8805 Z-0.0997
X-1.8961 Y1.8823 Z-0.1027
X-1.8981 Y1.8844 Z-0.1052
X-1.9005 Y1.8868 Z-0.1073
X-1.903 Y1.8894 Z-0.1088
X-1.9056 Y1.8922 Z-0.1097
X-1.9084 Y1.895 Z-0.11
X-1.9257 Y1.9129 F43
G3 X-1.9611 Y1.9135 I-0.018 J-0.0174
G1 X-3.2854 Y0.631 F43.2
G2 X-2.2152 Y0.8986 I1.239 J-2.681
X-0.5329 Y0.4862 I0.1688 J-2.9486
X-0.7966 Y3.0412 I2.5137 J1.5506
G1 X-1.9611 Y1.9135
G3 X-1.9617 Y1.8782 I0.0174 J-0.018 F43
G1 X-1.9443 Y1.8602
X-1.9416 Y1.8574 Z-0.1097
X-1.9389 Y1.8546 Z-0.1088
X-1.9364 Y1.852 Z-0.1073
X-1.934 Y1.8496 Z-0.1052
X-1.932 Y1.8475 Z-0.1027
X-1.9302 Y1.8457 Z-0.0997
X-1.9288 Y1.8442 Z-0.0963
X-1.9277 Y1.8431 Z-0.0927
X-1.9271 Y1.8425 Z-0.0889
X-1.9269 Y1.8422 Z-0.085
G0 Z0.2
X2.4307 Y2.0117
G1 Z0.08 F30
Z-0.085
X2.431 Z-0.0889
X2.4319 Z-0.0927
X2.4334 Z-0.0963
X2.4355 Z-0.0997
X2.438 Z-0.1027
X2.441 Z-0.1052
X2.4444 Z-0.1073
X2.448 Z-0.1088
X2.4518 Z-0.1097
X2.4557 Z-0.11
X2.4807 F43
G3 X2.5057 Y2.0367 J0.025
X1.4557 Y2.0368 I-0.525 F43.2
X2.5057 Y2.0367 I0.525
X2.4807 Y2.0617 I-0.025 F43
G1 X2.4557
X2.4518 Z-0.1097
X2.448 Z-0.1088
X2.4444 Z-0.1073
X2.441 Z-0.1052
X2.438 Z-0.1027
X2.4355 Z-0.0997
X2.4334 Z-0.0963
X2.4319 Z-0.0927
X2.431 Z-0.0889
X2.4307 Z-0.085
G0 Z0.6
G28 G91 Z0
G90
G28 G91 X0 Y0
G90
M30
%
