%
(Bore1)
(Aluminum batcg drill)
(T0  D=0.25 CR=0 - ZMIN=-0.11 - flat end mill)
G90 G94
G17
G20
G28 G91 Z0
G90

(2D Contour2)
M9
T0
(for hard Aluminum)
S19666 M3
G54
G0 X0.0053 Y-1.8441
Z0.6
Z0.2
G1 Z0.08 F30
Z-0.085
X0.0056 Y-1.8439 Z-0.0889
X0.0063 Y-1.8433 Z-0.0927
X0.0074 Y-1.8423 Z-0.0963
X0.0089 Y-1.8409 Z-0.0997
X0.0108 Y-1.8392 Z-0.1027
X0.013 Y-1.8373 Z-0.1052
X0.0156 Y-1.835 Z-0.1073
X0.0183 Y-1.8326 Z-0.1088
X0.0211 Y-1.8301 Z-0.1097
X0.024 Y-1.8275 Z-0.11
X0.0427 Y-1.8109 F43
G3 X0.0448 Y-1.7756 I-0.0166 J0.0187
G2 X0.0377 Y-1.6185 I0.0935 J0.083 F43.2
G1 X0.4916 Y-1.0028
X-0.2589 Y-1.6776
G2 X-0.3491 Y-1.7095 I-0.0836 J0.0929
G1 X-0.4338 Y-1.705
G2 X-0.4662 Y-1.6989 I0.0066 J0.1248
G1 X-1.9145 Y-1.2226
G2 X-2.2217 Y-1.313 I-0.2975 J0.4438
G1 X-4.8886 Y-1.2647
G2 X-5.0113 Y-1.1375 I0.0023 J0.125
G1 X-4.9932 Y-0.1376
G2 X-4.866 Y-0.0149 I0.125 J-0.0023
G1 X-4.4105 Y-0.0232
X-5.0116 Y0.7074
G2 X-4.9945 Y0.8833 I0.0965 J0.0794
G1 X-3.0519 Y2.4816
X-3.4698 Y3.9228
G2 X-3.4747 Y3.9554 I0.1201 J0.0348
G1 X-3.4762 Y4.0402
G2 X-3.4412 Y4.1293 I0.125 J0.0022
G1 X-2.6217 Y4.978
G2 X-2.534 Y5.0162 I0.0899 J-0.0868
G1 X-2.4491 Y5.0177
G2 X-2.4163 Y5.0139 I0.0022 J-0.125
G1 X-0.938 Y4.641
G2 X-0.6388 Y4.7525 I0.3272 J-0.4208
G1 X2.0251 Y4.8923
G2 X2.1565 Y4.7741 I0.0066 J-0.1248
G1 X2.2089 Y3.7755
X2.2091 Y3.7709
X2.3596 Y3.8779
G2 X2.5339 Y3.8484 I0.0724 J-0.1019
G1 X3.1133 Y3.0333
G2 X3.0838 Y2.859 I-0.1019 J-0.0724
G1 X0.967 Y1.3545
G3 X0.3389 Y0.8055 I2.4081 J-3.3882
G1 X0.6595 Y-0.6866
G2 X0.6621 Y-0.7195 I-0.1222 J-0.0263
G1 X0.6592 Y-0.7755
X1.5687 Y0.4582
X1.5726 Y0.4633
G2 X1.904 Y0.8425 I6.1939 J-5.0795
G1 X3.3676 Y2.4143
G3 X3.4255 Y2.5617 I-0.1581 J0.1472
G1 X3.4238 Y4.8617
G2 X3.5487 Y4.9868 I0.125 J0.0001
G1 X4.5488 Y4.9875
G2 X4.6739 Y4.8626 I0.0001 J-0.125
G1 X4.6758 Y2.1951
G2 X4.5804 Y1.8904 I-0.533 J-0.0004
G1 X5.0314 Y0.434
G2 X5.0369 Y0.4015 I-0.1194 J-0.037
G1 X5.04 Y0.3167
G2 X5.0065 Y0.227 I-0.1249 J-0.0045
G1 X4.2025 Y-0.6365
G2 X4.1155 Y-0.6762 I-0.0915 J0.0852
G1 X4.0307 Y-0.6792
G2 X3.9979 Y-0.6761 I-0.0045 J0.1249
G1 X2.5366 Y-0.3354
X1.0796 Y-2.3117
X2.2428 Y-2.3449
G3 X2.3941 Y-2.2159 I-3.91 J4.7412
G1 X4.0377 Y-0.7686
G2 X4.2141 Y-0.7798 I0.0826 J-0.0938
G1 X4.875 Y-1.5304
G2 X4.8638 Y-1.7068 I-0.0938 J-0.0826
G1 X2.8619 Y-3.4695
G2 X2.5692 Y-3.5993 I-0.3531 J0.401
G1 X1.7733 Y-4.8997
G2 X1.7525 Y-4.9253 I-0.1066 J0.0653
G1 X1.6908 Y-4.9836
G2 X1.6014 Y-5.0177 I-0.0858 J0.0909
G1 X0.4248 Y-4.9841
G2 X0.3375 Y-4.945 I0.0036 J0.1249
G1 X0.2792 Y-4.8833
G2 X0.26 Y-4.8565 I0.0909 J0.0858
G1 X-0.4612 Y-3.5115
G3 X-1.2954 Y-3.4994 I-0.4773 J-4.1293
G1 X-3.8828 Y-3.7223
G2 X-4.018 Y-3.6085 I-0.0107 J0.1245
G1 X-4.1039 Y-2.6121
G2 X-3.9901 Y-2.4769 I0.1245 J0.0107
G1 X-1.5341 Y-2.2653
G2 X-0.1049 Y-2.2779 I0.6486 J-7.5293
G1 X0.7548 Y-2.3024
X0.0641 Y-1.7932
G2 X0.0448 Y-1.7756 I0.0742 J0.1006
G3 X0.0095 Y-1.7735 I-0.0187 J-0.0166 F43
G1 X-0.0092 Y-1.7901
X-0.0121 Y-1.7927 Z-0.1097
X-0.0149 Y-1.7952 Z-0.1088
X-0.0176 Y-1.7977 Z-0.1073
X-0.0201 Y-1.7999 Z-0.1052
X-0.0224 Y-1.8019 Z-0.1027
X-0.0243 Y-1.8035 Z-0.0997
X-0.0258 Y-1.8049 Z-0.0963
X-0.0269 Y-1.8059 Z-0.0927
X-0.0276 Y-1.8065 Z-0.0889
X-0.0279 Y-1.8067 Z-0.085
G0 Z0.2
X-0.7892 Y1.5632
G1 Z0.08 F30
Z-0.085
X-0.789 Y1.563 Z-0.0889
X-0.7883 Y1.5623 Z-0.0927
X-0.7872 Y1.5613 Z-0.0963
X-0.7857 Y1.5599 Z-0.0997
X-0.7839 Y1.5581 Z-0.1027
X-0.7818 Y1.5561 Z-0.1052
X-0.7793 Y1.5537 Z-0.1073
X-0.7767 Y1.5512 Z-0.1088
X-0.774 Y1.5486 Z-0.1097
X-0.7712 Y1.5459 Z-0.11
X-0.7531 Y1.5285 F43
G3 X-0.7178 Y1.5292 I0.0173 J0.018
G2 X0.3504 Y2.4499 I5.4462 J-5.2392 F43.2
G1 X2.0259 Y3.6407
X-0.2062 Y3.5235
G3 X-0.3503 Y3.4578 I0.0113 J-0.2158
G1 X-1.8421 Y1.9127
G2 X-2.2031 Y1.5616 I-5.7627 J5.5638
G1 X-2.208 Y1.5573
X-4.1349 Y-0.0282
X-2.6763 Y-0.0546
G3 X-2.4775 Y-0.055 I0.1114 J6.1445
G1 X-0.7311 Y1.5154
G2 X-0.7178 Y1.5292 I5.4595 J-5.2253
G3 X-0.7185 Y1.5646 I-0.018 J0.0173 F43
G1 X-0.7365 Y1.5819
X-0.7393 Y1.5846 Z-0.1097
X-0.7421 Y1.5873 Z-0.1088
X-0.7447 Y1.5898 Z-0.1073
X-0.7471 Y1.5921 Z-0.1052
X-0.7492 Y1.5942 Z-0.1027
X-0.7511 Y1.5959 Z-0.0997
X-0.7526 Y1.5973 Z-0.0963
X-0.7536 Y1.5984 Z-0.0927
X-0.7543 Y1.599 Z-0.0889
X-0.7545 Y1.5992 Z-0.085
G0 Z0.6
G28 G91 Z0
G90
G28 G91 X0 Y0
G90
M30
%
